X: 24161
T: Loopy Paddlers, The
R: reel
M: 4/4
K: Dmajor
|:F2E2 D2DE|FAAB AFED|B2dB BAFB|AFFD E4|
F2E2 D2DE|FAde fedB|ABdA BdAF|1 EDEF D4:|2 EDEF DEFA||
|:B2AB cAcd-|dAdb afed|B2dB BAFB|AFFD EFGA|
B2AB cAcd-|dAeA fAgA|aA (3AAA fedB|1 AFEF DEFA:|2 AFEF D4||

